!!!OTL: Winterrosen
!!!OTL-incipit:Es wollt so'n wacker Maedchen aufs Wasser holen gehn,
!!!ARE: Europa, Mitteleuropa, Deutschland (BRD), Westfalen
!!!YOR: 7, S. 63
!!    1928 gedruckt
!!!SCT: Q0145J
!!!TXL: @@DE
!!!YEM: Copyright 1995, estate of Helmut Schaffrath.
**kern	**text
*ICvox	*
*M2/4	*
*k[b-e-]	*
*g:	*
{8d	Es
=1	=1
8dL	wollt
8gJ	so'n
8gL	wak-
8gJ	-ker
=2	=2
4g	Mad-
8a	-chen
8a	aufs
=3	=3
8b-L	Was-
8fJ	-ser
8fL	ho-
(16f	-len
16gJ)	.
=4	=4
4g}	gehn,
{(8gL	aus
8aJ)	.
=5	=5
4b-	ein
4f	so'n
=6	=6
(8e-L	kla-
8gJ)	.
4f	-ren
=7	=7
2d	Brun-
=8	=8
4.B-	-nen,
8r}	.
=9	=9
{4g	la,
(8gL	la,
8dJ)	.
=10	=10
4.g	la,
8r	.
=11	=11
4g	la,
12aL	la-
12g	-la-
12aJ	-la
=12	=12
4b-}	la,
{(8b-L	aus
8ddJ)	.
=13	=13
4cc	ein
4b-	so'n
=14	=14
4a	kla-
4g	-ren
=15	=15
2d	Brun-
=16	=16
4.g}	-nen.
==	==
!!!AGN: Ballade, Verfuehrung, verlorene Ehre
!! Refrain auf sinnfreie Silben in der dritten Zeile.
!!!ONB: ESAC (Essen Associative Code) Database: BALLADE
!!!AMT: simple duple
!!!AIN: vox
!!!EED: Helmut Schaffrath
!!!EEV: 1.0
!!!source: Deutsche Volkslieder mit ihren Melodien Balladen. Herausgegeben vom Deutschen Volksliedarchiv. Siebenterer Band. Freiburg/Breisgau 1982.
!!!page: 63
!!!ENC: Anna Maria Matuszewska
!!!EEV: 2025/03/07
*-	*-
